frontend/src/images/face-flying.svg

<svg xmlns="http://www.w3.org/2000/svg" width="65" height="59" viewBox="0 0 65 59">
  <g fill="none" fill-rule="evenodd">
    <path fill="#FFD469" d="M0,34.5634921 C0,32.5693242 1.59761209,30.952381 3.56793899,30.952381 L13.9726638,30.952381 C15.9429907,30.952381 17.5396825,32.5693242 17.5396825,34.5634921 C17.5396825,36.5576599 15.9429907,38.1746032 13.9726638,38.1746032 L3.56793899,38.1746032 C1.59761209,38.1746032 0,36.5576599 0,34.5634921"/>
    <path fill="#FFD469" d="M61.9047619,29.4047619 C61.9047619,45.6464138 48.7407507,58.8095238 32.5,58.8095238 C16.2601505,58.8095238 3.0952381,45.6464138 3.0952381,29.4047619 C3.0952381,13.1658136 16.2601505,0 32.5,0 C48.7407507,0 61.9047619,13.1658136 61.9047619,29.4047619"/>
    <path fill="#FFB636" d="M53.8200306,9.28571429 C56.6533259,13.8751297 58.289682,19.2805211 58.289682,25.0714342 C58.289682,41.7072788 44.8025493,55.1960444 28.1667116,55.1960444 C22.377911,55.1960444 16.9719152,53.5604979 12.3809524,50.727947 C17.6395772,55.7343369 24.7520201,58.8095238 32.5851426,58.8095238 C48.777969,58.8095238 61.9047619,45.6838136 61.9047619,29.4892071 C61.9047619,21.6547595 58.8288438,14.5428281 53.8200306,9.28571429"/>
    <path fill="#2B3B47" d="M47.4603175,19.6031746 C49.1699117,19.6031746 50.5555556,21.0186604 50.5555556,22.7650733 L50.5555556,29.8539743 C50.5555556,31.5995048 49.1699117,33.015873 47.4603175,33.015873 C45.7507232,33.015873 44.3650794,31.5995048 44.3650794,29.8539743 L44.3650794,22.7650733 C44.3650794,21.0186604 45.7507232,19.6031746 47.4603175,19.6031746"/>
    <path fill="#FFD469" d="M50.5555556,33.531746 C50.5555556,35.5257195 48.9391401,37.1428571 46.9439792,37.1428571 C44.9497487,37.1428571 43.3333333,35.5257195 43.3333333,33.531746 C43.3333333,31.5377725 44.9497487,29.9206349 46.9439792,29.9206349 C48.9391401,29.9206349 50.5555556,31.5377725 50.5555556,33.531746"/>
    <path stroke="#F2A74E" stroke-linecap="round" stroke-linejoin="round" stroke-width="2.25" d="M44.3650794,30.7423617 C46.3155164,29.6910125 48.5851676,29.6352982 50.5555556,30.6515681"/>
    <path fill="#2B3B47" d="M17.5396825,19.6031746 C19.2492768,19.6031746 20.6349206,21.0186604 20.6349206,22.7650733 L20.6349206,29.8539743 C20.6349206,31.5995048 19.2492768,33.015873 17.5396825,33.015873 C15.8300883,33.015873 14.4444444,31.5995048 14.4444444,29.8539743 L14.4444444,22.7650733 C14.4444444,21.0186604 15.8300883,19.6031746 17.5396825,19.6031746"/>
    <path fill="#FFD469" d="M21.6666667,33.531746 C21.6666667,35.5257195 20.0502513,37.1428571 18.0550903,37.1428571 C16.0608599,37.1428571 14.4444444,35.5257195 14.4444444,33.531746 C14.4444444,31.5377725 16.0608599,29.9206349 18.0550903,29.9206349 C20.0502513,29.9206349 21.6666667,31.5377725 21.6666667,33.531746"/>
    <path stroke="#F2A74E" stroke-linecap="round" stroke-linejoin="round" stroke-width="2.25" d="M14.4444444,30.7423617 C16.3948815,29.6910125 18.6645327,29.6352982 20.6349206,30.6515681"/>
    <path fill="#2B3B47" d="M53.1952401,38.3334651 C52.5096897,38.2652479 51.8250522,38.2203928 51.1404147,38.1755377 C50.9551061,38.2241307 50.4411716,38.3540237 49.6579463,38.5035408 C48.6638526,38.6483856 47.2425451,39.0044232 45.5382541,39.1642196 C43.8330503,39.3212126 41.8439501,39.6277227 39.7124453,39.7351882 C37.5818534,39.8875087 35.3088568,39.9108708 33.0358603,39.9482501 C30.7619509,39.9099363 28.4889543,39.8828363 26.3583624,39.7305158 C24.2268576,39.6183779 22.2377574,39.3184092 20.5325536,39.1604817 C18.8282626,38.9978818 17.4078679,38.6465166 16.4128614,38.5016719 C15.624159,38.3512203 15.1102244,38.2222618 14.9276544,38.1746032 C14.2311499,38.2203928 13.5346453,38.2671169 12.8381407,38.3334651 C12.7559842,38.3381375 12.6710892,38.3689754 12.5971483,38.4278478 C12.368023,38.598858 12.313252,38.939944 12.4702622,39.1866472 L12.8381407,39.7585502 C13.6797885,41.0593492 14.5196105,42.1760552 15.3603453,43.1198821 C16.2038188,44.0945468 17.0409022,44.9103496 17.8843756,45.6878387 C19.5631068,47.2054375 21.2454894,48.3240125 22.9296977,49.2706428 C23.3879484,49.5164115 23.8480248,49.701439 24.3071884,49.9098285 C26.865907,48.0754403 29.8390595,50.5555556 33.0166904,50.5555556 C36.2034498,50.5555556 39.178428,48.086654 41.7444494,49.934125 C42.1972231,49.7276045 42.6527352,49.5500529 43.1082474,49.3052186 C44.7888043,48.3576538 46.4693611,47.2409478 48.1517437,45.7186766 C48.9933914,44.9383841 49.8323006,44.1207123 50.6712098,43.1367027 C51.5128575,42.1928759 52.3545052,41.0696285 53.1952401,39.7585502 L53.5640315,39.1819748 C53.609674,39.1044128 53.6425366,39.0184404 53.6489265,38.9193854 C53.6726606,38.6222201 53.4672694,38.3568272 53.1952401,38.3334651"/>
    <path fill="#FFF" d="M20.0337515,39.54088 C21.7342117,39.6808199 23.7177785,39.9457948 25.8433538,40.0459884 C27.9680187,40.18096 30.2346921,40.2049734 32.5013655,40.2380952 C34.7680389,40.2058014 37.0356226,40.1851003 39.1602875,40.0493006 C41.2858627,39.9549033 43.2685192,39.683304 44.9689794,39.5441922 C46.6694396,39.4025962 48.0858829,39.0871105 49.0772111,38.9587633 C49.8591679,38.8254478 50.3716728,38.7111774 50.5555556,38.6681189 C49.5624067,38.6101557 48.5692578,38.5579887 47.576109,38.4950572 L42.5457326,38.3178552 C39.1930587,38.2176616 35.8367435,38.2259421 32.4831593,38.1746032 C29.1277544,38.2259421 25.7732598,38.2176616 22.4242271,38.3203394 L17.3929405,38.4950572 C16.4107153,38.5579887 15.4275799,38.6093276 14.4444444,38.6672909 C14.6255963,38.7095213 15.1390114,38.8237917 15.9246095,38.9571072 C16.916848,39.0846264 18.3342016,39.3959719 20.0337515,39.54088"/>
    <path fill="#FF473E" d="M41.2413767,49.7107679 C41.2505588,49.7071884 41.2597409,49.7045038 41.2698413,49.7000295 C38.6951753,47.9434078 35.6843587,48.5116477 32.5091821,48.8919656 L32.5,48.8928605 L32.4908179,48.8919656 C29.3156413,48.5116477 26.3039065,47.9434078 23.7301587,49.7000295 C23.7393408,49.7045038 23.748523,49.7071884 23.7586233,49.7107679 C23.7494412,49.7161371 23.7393408,49.7179268 23.7301587,49.723296 C26.60508,50.9716339 29.4790831,51.5622453 32.3512497,51.5792478 C32.3980785,51.5801427 32.4449073,51.5864067 32.4908179,51.5873016 L32.5,51.5864067 L32.5091821,51.5873016 C32.5550927,51.5864067 32.6010033,51.5801427 32.6478321,51.5792478 C35.5199987,51.5622453 38.39492,50.9716339 41.2698413,49.723296 C41.2597409,49.7179268 41.2505588,49.7161371 41.2413767,49.7107679"/>
    <path fill="#FFB636" d="M61.5729666,30.952381 C63.465481,30.952381 65,32.5695327 65,34.5639578 C65,36.5583829 63.465481,38.1746032 61.5729666,38.1746032 L58.1874783,38.1746032 C56.2949638,38.1746032 61.5729666,30.952381 61.5729666,30.952381"/>
  </g>
</svg>

<svg xmlns="http://www.w3.org/2000/svg" width="65" height="59" viewBox="0 0 65 59"><g fill="none" fill-rule="evenodd"><path fill="#FFD469" d="M0 34.563c0-1.994 1.598-3.61 3.568-3.61h10.405c1.97 0 3.567 1.616 3.567 3.61 0 1.995-1.597 3.612-3.567 3.612H3.568C1.598 38.175 0 36.558 0 34.563"/><path fill="#FFD469" d="M61.905 29.405c0 16.241-13.164 29.405-29.405 29.405-16.24 0-29.405-13.164-29.405-29.405C3.095 13.165 16.26 0 32.5 0c16.24 0 29.405 13.166 29.405 29.405"/><path fill="#FFB636" d="M53.82 9.286a29.948 29.948 0 0 1 4.47 15.785c0 16.636-13.487 30.125-30.123 30.125a29.963 29.963 0 0 1-15.786-4.468c5.259 5.006 12.371 8.082 20.204 8.082 16.193 0 29.32-13.126 29.32-29.32 0-7.835-3.076-14.947-8.085-20.204"/><path fill="#2B3B47" d="M47.46 19.603c1.71 0 3.096 1.416 3.096 3.162v7.089c0 1.746-1.386 3.162-3.096 3.162-1.71 0-3.095-1.416-3.095-3.162v-7.089c0-1.746 1.386-3.162 3.095-3.162"/><path fill="#FFD469" d="M50.556 33.532a3.611 3.611 0 1 1-7.223 0 3.611 3.611 0 0 1 7.223 0"/><path stroke="#F2A74E" stroke-linecap="round" stroke-linejoin="round" stroke-width="2.25" d="M44.365 30.742c1.95-1.051 4.22-1.107 6.19-.09"/><path fill="#2B3B47" d="M17.54 19.603c1.71 0 3.095 1.416 3.095 3.162v7.089c0 1.746-1.386 3.162-3.095 3.162-1.71 0-3.096-1.416-3.096-3.162v-7.089c0-1.746 1.386-3.162 3.096-3.162"/><path fill="#FFD469" d="M21.667 33.532a3.611 3.611 0 1 1-7.223 0 3.611 3.611 0 0 1 7.223 0"/><path stroke="#F2A74E" stroke-linecap="round" stroke-linejoin="round" stroke-width="2.25" d="M14.444 30.742c1.95-1.051 4.22-1.107 6.19-.09"/><path fill="#2B3B47" d="M53.195 38.333c-.685-.068-1.37-.113-2.055-.157-.185.048-.699.178-1.482.328-.994.144-2.415.5-4.12.66-1.705.157-3.694.464-5.826.571-2.13.153-4.403.176-6.676.213-2.274-.038-4.547-.065-6.678-.217-2.131-.113-4.12-.413-5.825-.57-1.705-.163-3.125-.514-4.12-.66-.789-.15-1.303-.279-1.485-.326a71.41 71.41 0 0 0-2.09.158.427.427 0 0 0-.24.095.575.575 0 0 0-.128.759l.368.572c.842 1.3 1.682 2.417 2.522 3.36.844.976 1.68 1.791 2.524 2.569 1.68 1.517 3.361 2.636 5.046 3.583.458.245.918.43 1.377.639 2.559-1.835 5.532.646 8.71.646 3.186 0 6.161-2.47 8.727-.622.453-.206.909-.384 1.364-.629 1.68-.947 3.361-2.064 5.044-3.586.841-.78 1.68-1.598 2.52-2.582.84-.944 1.683-2.067 2.523-3.378l.369-.577a.585.585 0 0 0 .085-.263c.024-.297-.182-.562-.454-.586"/><path fill="#FFF" d="M20.034 39.54c1.7.14 3.684.406 5.81.506 2.124.135 4.39.159 6.657.192 2.267-.032 4.535-.053 6.66-.189 2.125-.094 4.108-.366 5.808-.505 1.7-.141 3.117-.457 4.108-.585a25.674 25.674 0 0 0 1.479-.29c-.994-.059-1.987-.111-2.98-.174l-5.03-.177c-3.353-.1-6.71-.092-10.063-.143-3.355.05-6.71.043-10.059.145l-5.031.175c-.982.063-1.965.114-2.949.172.182.043.695.157 1.48.29.993.128 2.41.439 4.11.584"/><path fill="#FF473E" d="M41.241 49.71c.01-.003.019-.005.029-.01-2.575-1.757-5.586-1.188-8.76-.808h-.02c-3.174-.38-6.186-.949-8.76.808.01.005.019.007.029.01-.01.006-.02.008-.029.013 2.875 1.249 5.75 1.84 8.621 1.856.047.001.094.007.14.008h.019c.045 0 .091-.007.138-.008 2.872-.017 5.747-.607 8.622-1.856-.01-.005-.02-.007-.029-.012"/><path fill="#FFB636" d="M61.573 30.952c1.892 0 3.427 1.618 3.427 3.612s-1.535 3.61-3.427 3.61h-3.386c-1.892 0 3.386-7.222 3.386-7.222"/></g></svg>
